X:13
T:Je vet saa vael ke de gamle sei (vocal)
R:rorospols
Z:Smaaviltlaget, paa Skuddhold, Track 9
Z:(also Rorostraktom #88)
M:3/4
L:1/8
K:A
A
| A>B c2 c>d | e>f d3 f | e>c A2 G>B | A2 A3 A
| A>B c2 c>d | ef d3 f | e>c A>A G>B | A2 A3 z
| AB c3 d | e>f d3 z | AB c2 cA | df e4
| cd e2 =g2 | f>f d3 f | e>c A2 G2 | A2 A4 ||
W:Je vet saa vael ke de gamle sei, je vet saa vael ke dem tye.
W:Naar je vil ta meg en dram, to-tri, saa tye dem det bli foerr mye.
W:Gaa no hem og legg di no, og gaa no inte paa naa-a kro.
W:Saa spara du paa pongen din, saa slepp du huggupina.
